resources/haticons/SVG/3k.svg

<!-- Generated by IcoMoon.io -->
<svg version="1.1" xmlns="http://www.w3.org/2000/svg" width="24" height="24" viewBox="0 0 24 24">
<title>3k</title>
<path d="M18 15l-2.25-3 2.25-3h-1.734l-1.781 2.25v-2.25h-1.5v6h1.5v-2.25l1.781 2.25h1.734zM11.016 14.016v-4.031q0-0.422-0.305-0.703t-0.727-0.281h-3.469v1.5h3v0.984h-2.016v1.031h2.016v0.984h-3v1.5h3.469q0.422 0 0.727-0.281t0.305-0.703zM18.984 3q0.797 0 1.406 0.609t0.609 1.406v13.969q0 0.797-0.609 1.406t-1.406 0.609h-13.969q-0.797 0-1.406-0.609t-0.609-1.406v-13.969q0-0.797 0.609-1.406t1.406-0.609h13.969z"></path>
</svg>

<svg xmlns="http://www.w3.org/2000/svg" width="24" height="24"><path d="M18 15l-2.25-3L18 9h-1.734l-1.781 2.25V9h-1.5v6h1.5v-2.25L16.266 15H18zm-6.984-.984V9.985q0-.422-.305-.703t-.727-.281H6.515v1.5h3v.984H7.499v1.031h2.016v.984h-3V15h3.469q.422 0 .727-.281t.305-.703zM18.984 3q.797 0 1.406.609t.609 1.406v13.969q0 .797-.609 1.406t-1.406.609H5.015q-.797 0-1.406-.609T3 18.984V5.015q0-.797.609-1.406T5.015 3h13.969z"/></svg>
